svg/cash_remove.svg

<svg xmlns="http://www.w3.org/2000/svg" viewBox="0 0 24 24"><path d="m15.46 18.12 1.42 1.42L19 17.41l2.12 2.13 1.42-1.42L20.41 16l2.13-2.12-1.42-1.42L19 14.59l-2.12-2.13-1.42 1.42L17.59 16m-2.62-4.38C14.86 10.28 13.58 8.97 12 9c-1.7.04-3 1.3-3 3s1.3 2.94 3 3c.39 0 .77-.08 1.14-.23.27-1.1.72-2.14 1.83-3.15M13 16H7c0-1.1-.9-2-2-2v-4c1.1 0 2-.9 2-2h10c0 1.1.9 2 2 2v.05c.67.01 1.34.13 2 .35V6H3v12h10.32a6.4 6.4 0 0 1-.32-2"/></svg>

<?xml version="1.0" encoding="UTF-8"?><!DOCTYPE svg PUBLIC "-//W3C//DTD SVG 1.1//EN" "http://www.w3.org/Graphics/SVG/1.1/DTD/svg11.dtd"><svg xmlns="http://www.w3.org/2000/svg" xmlns:xlink="http://www.w3.org/1999/xlink" version="1.1" id="mdi-cash-remove" width="24" height="24" viewBox="0 0 24 24"><path d="M15.46 18.12L16.88 19.54L19 17.41L21.12 19.54L22.54 18.12L20.41 16L22.54 13.88L21.12 12.46L19 14.59L16.88 12.46L15.46 13.88L17.59 16M14.97 11.62C14.86 10.28 13.58 8.97 12 9C10.3 9.04 9 10.3 9 12C9 13.7 10.3 14.94 12 15C12.39 15 12.77 14.92 13.14 14.77C13.41 13.67 13.86 12.63 14.97 11.62M13 16H7C7 14.9 6.1 14 5 14V10C6.1 10 7 9.1 7 8H17C17 9.1 17.9 10 19 10V10.05C19.67 10.06 20.34 10.18 21 10.4V6H3V18H13.32C13.1 17.33 13 16.66 13 16Z" /></svg>
